X: 591
T: Downing's reel
C: anon.
O: Ireland
B: Francis O'Neill: "The Dance Music of Ireland" (1907) no. 591
R: Reel
Z: Transcribed by Frank Nordberg - http://www.musicaviva.com
F: http://www.musicaviva.com/abc/tunes/ireland/oneill-1001/oneill-1001-059
1.abc
M: C|
L: 1/8
K: Ador
(3DEF "^segno" |(G2F)(G EGD)(F|G2)BG dGBG|(G2F)(G EFD)c|Bee(d B)cAB|(G2F)
(GEFD)F|(GABc) dBAB|(G2F)(GEFD)A|Beed B2A2H||
B(AGA) Bcd2|(Be)(ed Bc)d2|(BA)GA (Bc)d2|(Be)(ed) B2A2|B(AGA) Bcd2|(Be)e(d
 Bc)d2|({F}G2)G(B A2) ac|Beed B2A2"^segno" |]
W:
W:
W: From Musica Viva - http://www.musicaviva.com
W: the Internet center for free sheet music downloads.


